X: 3
T: Isakas-Karl-Hindrikas vals
O: efter J.Broman
S: Karen Myers
Z: 1998 by John Chambers <jc@trillian.mit.edu>
M: 3/4
L: 1/8
K: D
|: AG | "D"F2 A2 AF | D2 F2 Ad | "G"B2 G2 F2 | "Em"E4 ed | "A7"c2 e2 ec | A2 c2 eg | "D"f2 d2 d2 | d4 :|
|: df | "D"a2 a2 a2 | a2 ba gf | "Em"ed ef g2 | g4 g2 | "A7"ga gf ed | c2 e2 ec | A2 c2 eg | "D"f2 d2 d2 | d4 :|
